src/images/logo.svg

<svg width="88" height="26" viewBox="0 0 88 26" fill="none" xmlns="http://www.w3.org/2000/svg">
<g opacity="0.3">
<path d="M0 0H38.7917L49 13L38.7917 26H0V0Z" fill="white"/>
<path fill-rule="evenodd" clip-rule="evenodd" d="M17.3145 11.5273C17.3739 11.576 17.4337 11.625 17.4943 11.6741C17.5345 11.6494 17.5593 11.6156 17.5827 11.5837C17.5881 11.5763 17.5935 11.5689 17.599 11.5619C17.8112 11.3069 18.022 11.0506 18.2327 10.7942L18.2329 10.794C18.656 10.2825 19.0777 9.77109 19.4994 9.25826C19.5835 9.15569 19.5808 9.10857 19.4843 9.02541C19.4085 8.95888 19.3313 8.89373 19.2528 8.82859C18.583 8.27417 17.8471 7.84173 17.0133 7.59086C16.4565 7.42453 15.8874 7.33305 15.3085 7.29286C14.5533 7.24158 13.805 7.26652 13.0636 7.43978C10.4671 8.04409 8.52949 10.2174 8.3021 13.0033C8.24146 13.7546 8.29934 14.4989 8.48952 15.2293C8.92226 16.8829 9.86214 18.1497 11.3547 18.9841C12.1678 19.4387 13.0484 19.6785 13.9745 19.7533C14.7587 19.8171 15.5346 19.7686 16.3008 19.5939C17.5962 19.2987 18.7415 18.7027 19.7599 17.8503C19.8412 17.7824 19.8743 17.7145 19.8743 17.6064C19.871 16.2803 19.8712 14.9533 19.8714 13.6268C19.8715 13.2951 19.8715 12.9635 19.8715 12.6319C19.8715 12.6146 19.8703 12.5971 19.8691 12.5797C19.8665 12.5409 19.8639 12.5023 19.8743 12.4669C19.8864 12.4259 19.8645 12.4024 19.8432 12.3794C19.8256 12.3605 19.8084 12.342 19.8109 12.3145C19.8164 12.2687 19.7861 12.2618 19.7503 12.2618H19.6538H14.2804C14.2699 12.2618 14.2593 12.2621 14.2485 12.2624C14.227 12.263 14.2052 12.2637 14.184 12.2618C14.1289 12.2563 14.1109 12.284 14.1151 12.3353C14.1169 12.3566 14.1163 12.3785 14.1157 12.4002C14.1154 12.411 14.1151 12.4217 14.1151 12.4323C14.1151 12.7234 14.1149 13.0144 14.1148 13.3055C14.1145 13.8876 14.1142 14.4698 14.1151 15.0519C14.1151 15.1482 14.1081 15.1908 14.126 15.2093C14.1436 15.2275 14.1854 15.2224 14.2818 15.2224H16.4455C16.5407 15.2224 16.5818 15.2173 16.5993 15.2353C16.6173 15.2538 16.6102 15.2966 16.6109 15.3942C16.6118 15.5208 16.6115 15.6467 16.6112 15.7728C16.611 15.836 16.6109 15.8992 16.6109 15.9625V15.9671C16.6109 16.2273 16.6109 16.2293 16.378 16.3423C15.6958 16.6722 14.975 16.7664 14.2308 16.6722C13.404 16.5682 12.7424 16.1732 12.2573 15.4899C11.9418 15.045 11.7695 14.5432 11.7047 14.0027C11.6234 13.3124 11.7061 12.6485 12.0162 12.022C12.3896 11.2694 12.9547 10.7288 13.7664 10.4807C14.3356 10.3061 14.9116 10.3518 15.4822 10.478C15.999 10.5916 16.4496 10.8467 16.8645 11.1668C17.0165 11.283 17.1643 11.4042 17.3145 11.5273ZM32.6218 9.01292C31.347 7.84033 29.8283 7.28176 28.2586 7.26929C27.5337 7.27067 26.9921 7.33027 26.4174 7.48135C24.7499 7.92072 23.4448 8.86323 22.5779 10.3685C21.6877 11.9125 21.5071 13.5688 22.0046 15.2723C22.5614 17.1767 23.748 18.5627 25.5837 19.3347C26.9935 19.9266 28.4543 20.0056 29.9275 19.6147C31.6392 19.1615 32.9512 18.1594 33.8111 16.5959C34.536 15.2778 34.7303 13.864 34.4602 12.3879C34.2177 11.0615 33.6113 9.92493 32.6218 9.01292ZM25.5823 11.9901C26.1377 10.9548 27.0252 10.4586 27.8865 10.4392C29.634 10.435 30.7765 11.4288 31.0879 12.8065C31.2767 13.6367 31.1927 14.4434 30.7889 15.1974C30.3134 16.0831 29.572 16.5987 28.5742 16.7137C27.6095 16.826 26.7675 16.5502 26.0798 15.8489C25.6388 15.3998 25.3728 14.8523 25.2598 14.2341C25.1165 13.451 25.2047 12.6928 25.5823 11.9901Z" fill="#010101"/>
<rect x="49" width="39" height="26" fill="white"/>
<path d="M73.538 7.27081C75.1683 7.27081 76.7987 7.27081 78.4304 7.27081C78.6192 7.27081 78.5985 7.24863 78.5985 7.44129C78.5985 8.36024 78.5985 9.27918 78.5985 10.1995C78.5985 10.2134 78.5985 10.2272 78.5985 10.2411C78.5971 10.3755 78.5971 10.3755 78.4621 10.3755C77.4188 10.3755 76.377 10.3755 75.3337 10.3755C75.1477 10.3755 75.1697 10.3603 75.1697 10.5363C75.1697 13.4276 75.1697 16.3202 75.1697 19.2115C75.1697 19.3917 75.1697 19.3917 74.9864 19.3917C74.0176 19.3917 73.0488 19.3917 72.0785 19.3917C72.0648 19.3917 72.051 19.3917 72.0372 19.3917C71.8704 19.3917 71.8897 19.4028 71.8897 19.2434C71.8897 16.3521 71.8897 13.4595 71.8897 10.5682C71.8897 10.3741 71.8897 10.3741 71.6913 10.3741C70.6673 10.3741 69.6434 10.3741 68.618 10.3741C68.4568 10.3741 68.4678 10.3894 68.4678 10.2272C68.4678 9.28888 68.4678 8.35192 68.4678 7.41357C68.4678 7.39001 68.4692 7.36783 68.4678 7.34427C68.4637 7.29299 68.483 7.26665 68.5381 7.26942C68.5753 7.27081 68.6112 7.26942 68.6484 7.26942C70.2773 7.27081 71.9077 7.27081 73.538 7.27081Z" fill="#010101"/>
<path d="M62.0939 13.3232C62.0939 11.3606 62.0939 9.39658 62.0939 7.43396C62.0939 7.24823 62.0719 7.2704 62.2524 7.2704C63.2392 7.26902 64.2273 7.2704 65.214 7.2704C65.2375 7.2704 65.2609 7.27318 65.2829 7.2704C65.3574 7.26209 65.3808 7.29813 65.3739 7.36743C65.3711 7.39515 65.3739 7.42287 65.3739 7.45059C65.3739 11.3717 65.3739 15.2942 65.3739 19.2153C65.3739 19.4149 65.4028 19.3927 65.2003 19.3927C64.2218 19.3941 63.2433 19.3927 62.2662 19.3927C62.2386 19.3927 62.2111 19.3899 62.1835 19.3927C62.1063 19.4038 62.0884 19.3636 62.0939 19.2957C62.0967 19.2596 62.0939 19.2222 62.0939 19.1848C62.0939 17.2305 62.0939 15.2762 62.0939 13.3232Z" fill="#010101"/>
</g>
</svg>

<svg xmlns="http://www.w3.org/2000/svg" width="88" height="26" fill="none"><g opacity=".3"><path fill="#fff" d="M0 0h38.792L49 13 38.792 26H0V0Z"/><path fill="#010101" fill-rule="evenodd" d="m17.314 11.527.18.147a.315.315 0 0 0 .089-.09l.016-.022a685.693 685.693 0 0 0 1.9-2.304c.084-.102.082-.15-.015-.233a10.961 10.961 0 0 0-.231-.196c-.67-.555-1.406-.987-2.24-1.238a7.82 7.82 0 0 0-1.705-.298c-.755-.051-1.503-.026-2.244.147-2.597.604-4.535 2.777-4.762 5.563a6.656 6.656 0 0 0 .188 2.226c.432 1.654 1.372 2.92 2.865 3.755.813.455 1.693.694 2.62.77.784.063 1.56.015 2.326-.16 1.295-.295 2.44-.891 3.459-1.744a.284.284 0 0 0 .114-.244c-.003-1.326-.003-2.653-.003-3.98v-.994a.762.762 0 0 0-.002-.052c-.003-.04-.005-.078.005-.113.012-.041-.01-.065-.03-.088-.018-.018-.036-.037-.033-.064.005-.046-.025-.053-.06-.053h-5.502c-.022.001-.044.002-.065 0-.055-.006-.073.022-.069.073a.585.585 0 0 1 0 .065v2.652c0 .096-.007.139.011.157.018.018.06.013.156.013h2.163c.096 0 .137-.005.154.013.018.019.011.062.012.16V15.966c0 .26 0 .262-.233.375-.682.33-1.403.424-2.147.33a2.75 2.75 0 0 1-1.974-1.182 3.178 3.178 0 0 1-.552-1.487c-.082-.69.001-1.354.311-1.981.374-.753.939-1.293 1.75-1.541.57-.175 1.146-.13 1.716-.003.517.114.968.369 1.383.689.152.116.3.237.45.36Zm15.308-2.514c-1.275-1.173-2.794-1.731-4.363-1.744-.725.002-1.267.061-1.842.212-1.667.44-2.972 1.382-3.84 2.887-.89 1.544-1.07 3.2-.572 4.904.556 1.905 1.743 3.29 3.579 4.063 1.41.592 2.87.67 4.343.28 1.712-.453 3.024-1.456 3.884-3.02.725-1.317.92-2.731.65-4.207-.243-1.326-.85-2.463-1.84-3.375Zm-7.04 2.977c.556-1.035 1.443-1.531 2.305-1.55 1.747-.005 2.89.989 3.2 2.367.19.83.106 1.636-.298 2.39-.476.886-1.217 1.402-2.215 1.517-.965.112-1.807-.164-2.494-.865a3.032 3.032 0 0 1-.82-1.615c-.144-.783-.055-1.541.322-2.244Z" clip-rule="evenodd"/><path fill="#fff" d="M49 0h39v26H49z"/><path fill="#010101" d="M73.538 7.27h4.892c.19 0 .168-.021.168.171v2.8c0 .135 0 .135-.136.135h-3.128c-.186 0-.164-.016-.164.16v8.676c0 .18 0 .18-.184.18h-2.949c-.167 0-.147.01-.147-.149v-8.675c0-.194 0-.194-.199-.194h-3.073c-.161 0-.15.015-.15-.147V7.344c-.004-.051.015-.077.07-.075.037.002.073 0 .11 0 1.63.002 3.26.002 4.89.002ZM62.094 13.323V7.434c0-.186-.022-.164.158-.164h2.962c.023 0 .047.003.069 0 .074-.008.098.028.09.097-.002.028 0 .056 0 .084v11.764c0 .2.03.178-.173.178h-2.934c-.027 0-.055-.003-.082 0-.078.01-.096-.03-.09-.097.003-.036 0-.074 0-.111v-5.862Z"/></g></svg>
